!!!COM: Bach, Johann Sebastian
!!!CDT: 1685/02/21/-1750/07/28/
!!!OTL@@DE: Vom Himmel hoch, da komm ich her
!!!SCT: BWV 248/9
!!!PC#: 46
!!!AGN: chorale
**harm	**kern	**kern	**kern	**kern
*	*ICvox	*ICvox	*ICvox	*ICvox
*	*Ibass	*Itenor	*Ialto	*Isoprn
*	*I"Bass	*I"Tenor	*I"Alto	*I"Soprano
*	*	*oclefC4	*oclefC3	*oclefC1
*	*clefF4	*clefGv2	*clefG2	*clefG2
*k[f#c#]	*k[f#c#]	*k[f#c#]	*k[f#c#]	*k[f#c#]
*D:	*D:	*D:	*D:	*D:
*M4/4	*M4/4	*M4/4	*M4/4	*M4/4
*met(c)	*met(c)	*met(c)	*met(c)	*met(c)
*MM100	*MM100	*MM100	*MM100	*MM100
I	4D	4f#	4a	4dd
=1	=1	=1	=1	=1
V	4A	4e	4a	4cc#
vii%7/V	4G#	4d	4f#	4b
V	8AL	8c#L	8eL	8cc#L
V2	8GJ	8c#J	8eJ	8cc#J
I6	4F#	4d	4f#	4a
=2	=2	=2	=2	=2
IV	4G	4B	4d	4b
viio6	4E	4G	4e	4cc#
I;	4D;	4A;	4f#;	4dd;
I	4D	4A	4f#	4dd
=3	=3	=3	=3	=3
I6	4F#	4d	4a	4dd
I6	4F#	4d	4f#	4a
V	4A	4c#	4e	4a
V43/IV	8AL	8cL	8dL	8f#L
IV	8GJ	8BJ	8dJ	8gJ
=4	=4	=4	=4	=4
I6	4F#	4A	4d	4a
V65	4C#	4A	4e	4g
I;	4D;	4A;	4d;	4f#;
I	4D	4A	4d	4f#
=5	=5	=5	=5	=5
A:V65/V	4D#	4A	4f#	4b
V	8EL	8G#L	8eL	8bL
V2	8DJ	8G#J	8eJ	8bJ
I6	8C#L	8AL	8eL	8aL
viio6	8BBJ	8dJ	8g#J	8bJ
I	4AA	4c#	4a	4cc#
=6	=6	=6	=6	=6
IV6	8FF#L	8AL	8aL	8ddL
I64	8EEJ	8c#J	8aJ	8cc#J
ii65	8DDL	8f#L	8aL	8bL
V	8EEJ	8eJ	8g#J	8bJ
I;	4AA;	4c#;	4e;	4a;
ii	8BL	8dL	8f#L	8ddL
V7	8EJ	8BJ	8eJ	8ddJ
=7	=7	=7	=7	=7
I	8AL	8AL	8eL	8cc#L
vi	8F#J	8AJ	8f#J	8cc#J
ii65	8DL	8AL	8f#L	8bL
E:ii6	8GnXJ	8GJ	8eJ	8bJ
V2	8GL	8AL	8c#L	8aL
I6	8F#J	8AJ	8dJ	8aJ
IV	8GL	8GL	8BL	8bL
iii6	8AJ	8F#J	8c#J	8aJ
=8	=8	=8	=8	=8
IV	4G	4D	4d	4g
V7	4A	4G	4c#	4e
I;	4D;	4F#;	4A;	4d;
==	==	==	==	==
*-	*-	*-	*-	*-
!!!YOR1: 371 vierstimmige Choralges&auml;nge von Johann Sebastian Bach, 
!!!YOR2: 4th ed. by Alfred D&ouml;rffel (Leipzig: Breitkopf und H&auml;rtel, 
!!!YOR2: c.1875). 178 pp. Plate "V.A.10".  reprint: J.S. Bach, 371 Four-Part 
!!!YOR4: Chorales (New York: Associated Music Publishers, Inc., c.1940).
!!!SMS: B&H, 4th ed, Alfred D&ouml;rffel, c.1875, plate V.A.10
!!!EED:  Craig Stuart Sapp
!!!EEV:  2009/05/22
